azure-icons/manage-325-Service-Providers.svg

<svg xmlns="http://www.w3.org/2000/svg" width="18" height="18"><defs><linearGradient id="a" x1="6.49" y1="6.29" x2="6.49" y2="18.38" gradientUnits="userSpaceOnUse"><stop offset=".1" stop-color="#54aef0"/><stop offset="1" stop-color="#1988d9"/></linearGradient><linearGradient id="b" x1="7.13" y1="-.19" x2="8.01" y2="10.79" gradientUnits="userSpaceOnUse"><stop offset=".1" stop-color="#54aef0"/><stop offset="1" stop-color="#1988d9"/></linearGradient><linearGradient id="c" x1="13.76" y1="18.05" x2="13.76" y2="10.25" gradientUnits="userSpaceOnUse"><stop offset="0" stop-color="#76bc2d"/><stop offset=".6" stop-color="#81ce31"/><stop offset=".82" stop-color="#86d633"/></linearGradient></defs><path d="M9.35 10.31a.51.51 0 01.51-.51h2.93a6.53 6.53 0 00-5.31-2.43C3 7.37.65 10.18.2 14.77a1.29 1.29 0 001.16 1.42h8z" fill="url(#a)"/><path d="M7.48 8.34a4.09 4.09 0 01-2.21-.65l2.19 5.71 2.17-5.68a4 4 0 01-2.15.62z" fill="#fff" opacity=".8"/><circle cx="7.48" cy="4.25" r="4.08" fill="url(#b)"/><path d="M12.59 15.71h2.34v2.34h-2.34zm-2.73-3.12h2.34v-2.34h-2a.33.33 0 00-.33.33zm.33 5.46h2v-2.34H9.86v2a.33.33 0 00.33.34zm-.33-2.73h2.34V13H9.86zm5.45 2.73h2a.32.32 0 00.32-.33v-2h-2.32zm-2.72-2.73h2.34V13h-2.34zm2.72 0h2.34V13h-2.34zm0-5.07v2.34h2.34v-2a.32.32 0 00-.32-.33zm-2.72 2.34h2.34v-2.34h-2.34z" fill="url(#c)"/></svg>

<svg id="fb45399d-101d-4307-af8b-b95e6d550e3d" xmlns="http://www.w3.org/2000/svg"  width="18" height="18" viewBox="0 0 18 18">
  <defs>
    <linearGradient id="efc8edab-197e-437c-8de3-c7ad62d8cf10" x1="6.49" y1="6.29" x2="6.49" y2="18.38" gradientUnits="userSpaceOnUse">
      <stop offset="0.1" stop-color="#54aef0"/>
      <stop offset="1" stop-color="#1988d9"/>
    </linearGradient>
    <linearGradient id="f6def0c6-d993-4d63-90a2-b68ba69df74a" x1="7.13" y1="-0.19" x2="8.01" y2="10.79" gradientUnits="userSpaceOnUse">
          <stop offset="0.1" stop-color="#54aef0"/>
      <stop offset="1" stop-color="#1988d9"/>
    </linearGradient>
    <linearGradient id="ada114d9-8e8c-4a06-9507-f18462256263" x1="13.76" y1="18.05" x2="13.76" y2="10.25" gradientUnits="userSpaceOnUse">
      <stop offset="0" stop-color="#76bc2d"/>
      <stop offset="0.6" stop-color="#81ce31"/>
      <stop offset="0.82" stop-color="#86d633"/>
    </linearGradient>
  </defs>
  <title>Icon-manage-325</title>
  <path d="M9.35,10.31a.51.51,0,0,1,.51-.51h2.93A6.53,6.53,0,0,0,7.48,7.37C3,7.37.65,10.18.2,14.77a1.29,1.29,0,0,0,1.16,1.42h8Z" fill="url(#efc8edab-197e-437c-8de3-c7ad62d8cf10)"/>
  <path d="M7.48,8.34a4.09,4.09,0,0,1-2.21-.65L7.46,13.4,9.63,7.72A4,4,0,0,1,7.48,8.34Z" fill="#fff" opacity="0.8"/>
  <circle cx="7.48" cy="4.25" r="4.08" fill="url(#f6def0c6-d993-4d63-90a2-b68ba69df74a)"/>
  <path d="M12.59,15.71h2.34v2.34H12.59ZM9.86,12.59H12.2V10.25h-2a.33.33,0,0,0-.33.33Zm.33,5.46h2V15.71H9.86v2A.33.33,0,0,0,10.19,18.05Zm-.33-2.73H12.2V13H9.86Zm5.45,2.73h2a.32.32,0,0,0,.32-.33v-2H15.31Zm-2.72-2.73h2.34V13H12.59Zm2.72,0h2.34V13H15.31Zm0-5.07v2.34h2.34v-2a.32.32,0,0,0-.32-.33Zm-2.72,2.34h2.34V10.25H12.59Z" fill="url(#ada114d9-8e8c-4a06-9507-f18462256263)"/>
</svg>
